X: 24
T: No_31_Song_of_the_Sand-Hill_Cranes.krn
N: Derived from No_31_Song_of_the_Sand-Hill_Cranes.krn
%%abc-version 2.0
%%abcx-abcm2ps-target-version 5.9.1 (29 Sep 2008)
%%abc-creator hum2abc beta
%%abcx-conversion-date 2019/03/15 08:35:00
%%humdrum-veritas 848764195
%%humdrum-veritas-data 2267766194
%%linebreak <none>
%%barnumbers 0
L: 1/16
M: 3/8
K: Bb clef=bass
[K:clef=bass][M:3/8]z4F,F, | 
F,2DDD2 | 
F3/C/C2(B,F,) | 
B,2 z3 E | 
D4B,B, | 
(CB,)(B,F,) z E | 
D2FCC2 [I:setbarnb 8]| 
(CB,)(B,F,) z E | 
D4B,B, | 
(CB,)(B,F,) z F | 
FD(ED)(DC) | 
D4B,B, | 
B,2F,2 z F | 
FFFD(DC) | 
D4B,B, | 
B,2F,2 z2 :|]  



